svgs/duotone/user-plus.svg

<svg xmlns="http://www.w3.org/2000/svg" viewBox="0 0 640 512"><!-- Font Awesome Pro 6.0.0-alpha2 by @fontawesome - https://fontawesome.com License - https://fontawesome.com/license (Commercial License) --><defs><style>.fa-secondary{opacity:.4}</style></defs><path d="M224 256C294.695 256 352 198.691 352 128S294.695 0 224 0C153.312 0 96 57.309 96 128S153.312 256 224 256ZM274.664 304H173.336C77.609 304 0 381.602 0 477.332C0 496.477 15.523 512 34.664 512H413.336C432.477 512 448 496.477 448 477.332C448 381.602 370.398 304 274.664 304Z" class="fa-secondary"/><path d="M616 200H568V152C568 138.75 557.25 128 544 128S520 138.75 520 152V200H472C458.75 200 448 210.75 448 224S458.75 248 472 248H520V296C520 309.25 530.75 320 544 320S568 309.25 568 296V248H616C629.25 248 640 237.25 640 224S629.25 200 616 200Z" class="fa-primary"/></svg>

<svg xmlns="http://www.w3.org/2000/svg" viewBox="0 0 640 512"><!--! Font Awesome Pro 6.3.0 by @fontawesome - https://fontawesome.com License - https://fontawesome.com/license (Commercial License) Copyright 2023 Fonticons, Inc. --><defs><style>.fa-secondary{opacity:.4}</style></defs><path class="fa-primary" d="M616 200h-48v-48C568 138.8 557.3 128 544 128s-24 10.75-24 24v48h-48C458.8 200 448 210.8 448 224s10.75 24 24 24h48v48C520 309.3 530.8 320 544 320s24-10.75 24-24v-48h48C629.3 248 640 237.3 640 224S629.3 200 616 200z"/><path class="fa-secondary" d="M224 256c70.7 0 128-57.31 128-128S294.7 0 224 0C153.3 0 96 57.31 96 128S153.3 256 224 256zM274.7 304H173.3C77.61 304 0 381.6 0 477.3C0 496.5 15.52 512 34.66 512h378.7C432.5 512 448 496.5 448 477.3C448 381.6 370.4 304 274.7 304z"/></svg>
